exports/gdp-per-capita-ppp-adjusted-vs-us-market-exchange_v2_850x600.svg

<svg xmlns="http://www.w3.org/2000/svg" version="1.1" style="background-color:#fff;-webkit-font-smoothing:antialiased" width="850" height="600" font-family="'Helvetica Neue',Helvetica,Arial,sans-serif" font-size="18" text-rendering="optimizeLegibility"><g class="ChartTab"><g class="HeaderView"><g opacity=".8" transform="matrix(.27 0 0 .27 778 15)"><a xmlns:xlink="http://www.w3.org/1999/xlink" xlink:href="https://ourworldindata.org" target="_blank"><g><path fill="#1B2543" d="M0 0h211.2v130.1H0z"/><path fill="#E63912" d="M0 112.2h211.2v17.9H0z"/><g><path fill="none" d="M1.2 12.3h210.2v99.2H1.2z"/><path fill="#FFF" d="M37.8 32.2c0 12.7-7.7 19.4-17.1 19.4-9.7 0-16.6-7.5-16.6-18.7 0-11.7 7.3-19.3 17.1-19.3 10.1.1 16.6 7.7 16.6 18.6zm-28.6.6c0 7.9 4.3 14.9 11.8 14.9 7.5 0 11.8-6.9 11.8-15.3 0-7.3-3.8-14.9-11.8-14.9-7.9 0-11.8 7.3-11.8 15.3zM62.7 43.8c0 2.7.1 5.1.2 7.2h-4.3l-.3-4.3h-.1c-1.3 2.1-4 4.9-8.8 4.9-4.2 0-9.1-2.3-9.1-11.6V24.6h4.8v14.6c0 5 1.5 8.4 5.9 8.4 3.2 0 5.5-2.2 6.3-4.4.3-.7.4-1.6.4-2.5V24.6h4.8v19.2zM67.3 32.8c0-3.1-.1-5.8-.2-8.2h4.2l.2 5.2h.2c1.2-3.5 4.1-5.8 7.3-5.8.5 0 .9.1 1.4.2v4.5c-.5-.1-1-.2-1.6-.2-3.4 0-5.8 2.6-6.5 6.2-.1.7-.2 1.4-.2 2.2V51h-4.8V32.8zM95.4 51L86 14.2h5l4.4 18.6c1.1 4.6 2.1 9.2 2.7 12.7h.1c.6-3.7 1.8-8 3-12.8l4.9-18.5h5l4.5 18.7c1 4.4 2 8.7 2.6 12.6h.1c.8-4 1.8-8.1 3-12.7l4.9-18.5h4.9L120.6 51h-5L111 31.9c-1.1-4.7-1.9-8.3-2.4-12h-.1c-.7 3.7-1.5 7.3-2.8 12L100.4 51h-5zM154.9 37.6c0 9.8-6.8 14-13.2 14-7.2 0-12.7-5.2-12.7-13.6 0-8.8 5.8-14 13.1-14 7.7 0 12.8 5.5 12.8 13.6zm-21 .3c0 5.8 3.3 10.1 8 10.1 4.6 0 8-4.3 8-10.3 0-4.5-2.2-10.1-7.9-10.1s-8.1 5.2-8.1 10.3zM158.2 32.8c0-3.1-.1-5.8-.2-8.2h4.2l.2 5.2h.2c1.2-3.5 4.1-5.8 7.3-5.8.5 0 .9.1 1.4.2v4.5c-.5-.1-1-.2-1.6-.2-3.4 0-5.8 2.6-6.5 6.2-.1.7-.2 1.4-.2 2.2V51h-4.8V32.8zM173.5 12.3h4.8V51h-4.8V12.3zM206.5 12.3v31.9c0 2.3.1 5 .2 6.8h-4.3l-.2-4.6h-.2c-1.5 2.9-4.7 5.2-9 5.2-6.4 0-11.3-5.4-11.3-13.4-.1-8.8 5.4-14.2 11.9-14.2 4 0 6.8 1.9 8 4h.1V12.3h4.8zm-4.8 23.1c0-.6-.1-1.4-.2-2a7 7 0 00-6.9-5.6c-5 0-7.9 4.4-7.9 10.2 0 5.3 2.6 9.8 7.8 9.8 3.2 0 6.2-2.1 7.1-5.7.2-.7.2-1.3.2-2.1v-4.6zM42.8 64c.1 1.6-1.1 2.9-3.1 2.9-1.7 0-2.9-1.3-2.9-2.9 0-1.7 1.3-3 3-3 1.9 0 3 1.3 3 3zm-5.4 33.8V71.4h4.8v26.4h-4.8zM47.5 78.6c0-2.7-.1-5-.2-7.1h4.3l.3 4.4h.1c1.3-2.5 4.4-5 8.8-5 3.7 0 9.4 2.2 9.4 11.2v15.8h-4.8V82.6c0-4.3-1.6-7.8-6.1-7.8-3.2 0-5.6 2.2-6.5 4.9-.2.6-.3 1.4-.3 2.2v15.9h-4.8V78.6zM84 61.6c2.9-.4 6.3-.8 10.1-.8 6.8 0 11.7 1.6 14.9 4.6 3.3 3 5.2 7.3 5.2 13.2 0 6-1.9 10.9-5.3 14.3-3.4 3.4-9.1 5.3-16.3 5.3-3.4 0-6.2-.2-8.6-.4V61.6zm4.8 32.5c1.2.2 3 .3 4.8.3 10.2 0 15.7-5.7 15.7-15.6.1-8.7-4.9-14.2-14.9-14.2-2.5 0-4.3.2-5.6.5v29zM132.1 97.8l-.4-3.3h-.2a9.79 9.79 0 01-8.1 3.9c-5.4 0-8.1-3.8-8.1-7.6 0-6.4 5.7-9.9 15.9-9.8v-.5c0-2.2-.6-6.1-6-6.1-2.5 0-5 .8-6.9 2l-1.1-3.2c2.2-1.4 5.4-2.3 8.7-2.3 8.1 0 10.1 5.5 10.1 10.8v9.9c0 2.3.1 4.5.4 6.3h-4.3zm-.7-13.4c-5.3-.1-11.2.8-11.2 5.9 0 3.1 2.1 4.6 4.5 4.6 3.4 0 5.6-2.2 6.4-4.4.2-.5.3-1 .3-1.5v-4.6zM146.6 63.9v7.6h6.9v3.7h-6.9v14.2c0 3.3.9 5.1 3.6 5.1 1.3 0 2.2-.2 2.8-.3l.2 3.6c-.9.4-2.4.7-4.3.7-2.2 0-4-.7-5.2-2-1.4-1.4-1.9-3.8-1.9-6.9V75.1h-4.1v-3.7h4.1v-6.3l4.8-1.2zM171.4 97.8l-.4-3.3h-.2a9.79 9.79 0 01-8.1 3.9c-5.4 0-8.1-3.8-8.1-7.6 0-6.4 5.7-9.9 15.9-9.8v-.5c0-2.2-.6-6.1-6-6.1-2.5 0-5 .8-6.9 2l-1.1-3.2c2.2-1.4 5.4-2.3 8.7-2.3 8.1 0 10.1 5.5 10.1 10.8v9.9c0 2.3.1 4.5.4 6.3h-4.3zm-.7-13.4c-5.3-.1-11.2.8-11.2 5.9 0 3.1 2.1 4.6 4.5 4.6 3.4 0 5.6-2.2 6.4-4.4.2-.5.3-1 .3-1.5v-4.6z"/></g></g></a></g><a href="https://ourworldindata.org/grapher/gdp-per-capita-in-international-and-market-dollars" target="_blank"><text font-size="25.2" x="15" y="35.2" fill="#555"><tspan x="15" y="35.16">GDP per capita in international and market dollars, India</tspan></text></a><text font-size="14.4" x="15" y="53.7" fill="#666"><tspan x="15" y="53.72">International dollars use purchase power parity conversion rates from 2011, in order to account for differences in</tspan><tspan x="15" y="69.56">prices levels. Market dollars use currency market exchange rates.</tspan></text></g><g class="LineChart"><defs><clipPath id="a"><path d="M59.9 0h830v928.8h-830z"/></clipPath></defs><g class="AxisBoxView"><g class="HorizontalAxis" fill="#666" text-anchor="middle" font-size="16.2"><text x="69.9" y="556.5">1960</text><text x="168.5" y="556.5">1970</text><text x="267.2" y="556.5">1980</text><text x="365.8" y="556.5">1990</text><text x="464.5" y="556.5">2000</text><text x="563.1" y="556.5">2010</text><text x="622.3" y="556.5">2016</text></g><g class="VerticalAxis" fill="#666" dominant-baseline="middle" text-anchor="end" font-size="16.2"><text x="64.9" y="535.3">$0</text><text x="64.9" y="467.9">$1,000</text><text x="64.9" y="400.4">$2,000</text><text x="64.9" y="333">$3,000</text><text x="64.9" y="265.6">$4,000</text><text x="64.9" y="198.1">$5,000</text><text x="64.9" y="130.7">$6,000</text></g><g class="AxisGridLines"><path stroke="#ccc" d="M69.9 535.3h552.44"/><path stroke="#ddd" stroke-dasharray="3,2" d="M69.9 467.9h552.44M69.9 400.4h552.44M69.9 333h552.44M69.9 265.6h552.44M69.9 198.1h552.44M69.9 130.7h552.44"/></g></g><g clip-path="url(#a)"><g class="HeightedLegend clickable"><g class="legendMark"><text font-size="13.5" x="627.3" y="88.8" fill="#ca2628"><tspan x="627.34" y="88.85">GDP per capita, PPP (current</tspan><tspan x="627.34" y="103.7">international $)</tspan></text></g><g class="legendMark"><text font-size="13.5" x="627.3" y="424.1" fill="#ca2628"><tspan x="627.34" y="424.05">GDP per capita (current US$)</tspan></text></g></g><g class="Lines"><g class="key-India_0"><path stroke="#ca2628" stroke-linecap="round" d="M70 530h10l10-1h10l9-1 10-1 10 2h20l10-1h10l9-1h10l10-1 10-2 10 1h10l10-2 10-1 9-2 10-2 10-1h10l10-1 10 1 10-1 9-1 10-2 10-1h10l10-1 10 4 10-1 9 1 10-3 10-2 10-1 10-1h10l10-2h10l9-1 10-1 10-5 10-6 10-5 10-6 10-15 9 1 10-6 10-17 10-8 10 1 10-1 10-8 10-2 9-7" fill="none" stroke-width="1.5"/><g fill="#ca2628"><circle cx="70" cy="530" r="2"/><circle cx="80" cy="530" r="2"/><circle cx="90" cy="529" r="2"/><circle cx="100" cy="529" r="2"/><circle cx="109" cy="528" r="2"/><circle cx="119" cy="527" r="2"/><circle cx="129" cy="529" r="2"/><circle cx="139" cy="529" r="2"/><circle cx="149" cy="529" r="2"/><circle cx="159" cy="528" r="2"/><circle cx="169" cy="528" r="2"/><circle cx="178" cy="527" r="2"/><circle cx="188" cy="527" r="2"/><circle cx="198" cy="526" r="2"/><circle cx="208" cy="524" r="2"/><circle cx="218" cy="525" r="2"/><circle cx="228" cy="525" r="2"/><circle cx="238" cy="523" r="2"/><circle cx="248" cy="522" r="2"/><circle cx="257" cy="520" r="2"/><circle cx="267" cy="518" r="2"/><circle cx="277" cy="517" r="2"/><circle cx="287" cy="517" r="2"/><circle cx="297" cy="516" r="2"/><circle cx="307" cy="517" r="2"/><circle cx="317" cy="516" r="2"/><circle cx="326" cy="515" r="2"/><circle cx="336" cy="513" r="2"/><circle cx="346" cy="512" r="2"/><circle cx="356" cy="512" r="2"/><circle cx="366" cy="511" r="2"/><circle cx="376" cy="515" r="2"/><circle cx="386" cy="514" r="2"/><circle cx="395" cy="515" r="2"/><circle cx="405" cy="512" r="2"/><circle cx="415" cy="510" r="2"/><circle cx="425" cy="509" r="2"/><circle cx="435" cy="508" r="2"/><circle cx="445" cy="508" r="2"/><circle cx="455" cy="506" r="2"/><circle cx="465" cy="506" r="2"/><circle cx="474" cy="505" r="2"/><circle cx="484" cy="504" r="2"/><circle cx="494" cy="499" r="2"/><circle cx="504" cy="493" r="2"/><circle cx="514" cy="488" r="2"/><circle cx="524" cy="482" r="2"/><circle cx="534" cy="467" r="2"/><circle cx="543" cy="468" r="2"/><circle cx="553" cy="462" r="2"/><circle cx="563" cy="445" r="2"/><circle cx="573" cy="437" r="2"/><circle cx="583" cy="438" r="2"/><circle cx="593" cy="437" r="2"/><circle cx="603" cy="429" r="2"/><circle cx="613" cy="427" r="2"/><circle cx="622" cy="420" r="2"/></g></g><g class="key-India_1"><path stroke="#ca2628" stroke-linecap="round" d="M366 459l10-2 10-4 9-5 10-6 10-7 10-7 10-4 10-6 10-10 10-6 9-7 10-5 10-12 10-15 10-19 10-20 10-24 9-10 10-19 10-27 10-21 10-19 10-23 10-29 10-30 9-30" fill="none" stroke-width="1.5"/><g fill="#ca2628"><circle cx="366" cy="459" r="2"/><circle cx="376" cy="457" r="2"/><circle cx="386" cy="453" r="2"/><circle cx="395" cy="448" r="2"/><circle cx="405" cy="442" r="2"/><circle cx="415" cy="435" r="2"/><circle cx="425" cy="428" r="2"/><circle cx="435" cy="424" r="2"/><circle cx="445" cy="418" r="2"/><circle cx="455" cy="408" r="2"/><circle cx="465" cy="402" r="2"/><circle cx="474" cy="395" r="2"/><circle cx="484" cy="390" r="2"/><circle cx="494" cy="378" r="2"/><circle cx="504" cy="363" r="2"/><circle cx="514" cy="344" r="2"/><circle cx="524" cy="324" r="2"/><circle cx="534" cy="300" r="2"/><circle cx="543" cy="290" r="2"/><circle cx="553" cy="271" r="2"/><circle cx="563" cy="244" r="2"/><circle cx="573" cy="223" r="2"/><circle cx="583" cy="204" r="2"/><circle cx="593" cy="181" r="2"/><circle cx="603" cy="152" r="2"/><circle cx="613" cy="122" r="2"/><circle cx="622" cy="92" r="2"/></g></g></g></g></g><g class="SourcesFooter" fill="#777"><g class="clickable" fill="#777"><text font-size="12.6" x="15" y="581.6"><tspan x="15" y="581.58">Source: World Bank – WDI</tspan></text></g><text font-size="12.6" x="550.7" y="581.6"><tspan x="550.74" y="581.58"><a target="_blank" href="https://ourworldindata.org/extreme-poverty/" fill="#777">OurWorldInData.org/extreme-poverty/</a> • <a class="cclogo" href="http://creativecommons.org/licenses/by-sa/4.0/deed.en_US" target="_blank" fill="#777">CC BY-SA</a></tspan></text></g></g></svg>

<svg xmlns="http://www.w3.org/2000/svg" version="1.1" style="font-family: 'Helvetica Neue', Helvetica, Arial, sans-serif; font-size: 18px; background-color: white; text-rendering: optimizeLegibility; -webkit-font-smoothing: antialiased;" width="850" height="600"><g class="ChartTab"><g class="HeaderView"><g opacity="0.8" transform="translate(778, 15) scale(0.27)"><a xmlns:xlink="http://www.w3.org/1999/xlink" xlink:href="https://ourworldindata.org" target="_blank"><g><rect x="0" y="0" fill="#1B2543" width="211.2" height="130.1"/><rect x="0" y="112.2" fill="#E63912" width="211.2" height="17.9"/><g><rect x="1.2" y="12.3" fill="none" width="210.2" height="99.2"/><path fill="#FFFFFF" d="M37.8,32.2c0,12.7-7.7,19.4-17.1,19.4c-9.7,0-16.6-7.5-16.6-18.7c0-11.7,7.3-19.3,17.1-19.3 C31.3,13.7,37.8,21.3,37.8,32.2z M9.2,32.8c0,7.9,4.3,14.9,11.8,14.9c7.5,0,11.8-6.9,11.8-15.3c0-7.3-3.8-14.9-11.8-14.9 C13.1,17.5,9.2,24.8,9.2,32.8z"/><path fill="#FFFFFF" d="M62.7,43.8c0,2.7,0.1,5.1,0.2,7.2h-4.3l-0.3-4.3h-0.1c-1.3,2.1-4,4.9-8.8,4.9c-4.2,0-9.1-2.3-9.1-11.6 V24.6h4.8v14.6c0,5,1.5,8.4,5.9,8.4c3.2,0,5.5-2.2,6.3-4.4c0.3-0.7,0.4-1.6,0.4-2.5V24.6h4.8V43.8z"/><path fill="#FFFFFF" d="M67.3,32.8c0-3.1-0.1-5.8-0.2-8.2h4.2l0.2,5.2h0.2c1.2-3.5,4.1-5.8,7.3-5.8c0.5,0,0.9,0.1,1.4,0.2v4.5 c-0.5-0.1-1-0.2-1.6-0.2c-3.4,0-5.8,2.6-6.5,6.2c-0.1,0.7-0.2,1.4-0.2,2.2V51h-4.8V32.8z"/><path fill="#FFFFFF" d="M95.4,51l-9.4-36.8h5l4.4,18.6c1.1,4.6,2.1,9.2,2.7,12.7h0.1c0.6-3.7,1.8-8,3-12.8l4.9-18.5h5l4.5,18.7 c1,4.4,2,8.7,2.6,12.6h0.1c0.8-4,1.8-8.1,3-12.7l4.9-18.5h4.9L120.6,51h-5L111,31.9c-1.1-4.7-1.9-8.3-2.4-12h-0.1 c-0.7,3.7-1.5,7.3-2.8,12L100.4,51H95.4z"/><path fill="#FFFFFF" d="M154.9,37.6c0,9.8-6.8,14-13.2,14c-7.2,0-12.7-5.2-12.7-13.6c0-8.8,5.8-14,13.1-14 C149.8,24,154.9,29.5,154.9,37.6z M133.9,37.9c0,5.8,3.3,10.1,8,10.1c4.6,0,8-4.3,8-10.3c0-4.5-2.2-10.1-7.9-10.1 C136.3,27.6,133.9,32.8,133.9,37.9z"/><path fill="#FFFFFF" d="M158.2,32.8c0-3.1-0.1-5.8-0.2-8.2h4.2l0.2,5.2h0.2c1.2-3.5,4.1-5.8,7.3-5.8c0.5,0,0.9,0.1,1.4,0.2v4.5 c-0.5-0.1-1-0.2-1.6-0.2c-3.4,0-5.8,2.6-6.5,6.2c-0.1,0.7-0.2,1.4-0.2,2.2V51h-4.8V32.8z"/><path fill="#FFFFFF" d="M173.5,12.3h4.8V51h-4.8V12.3z"/><path fill="#FFFFFF" d="M206.5,12.3v31.9c0,2.3,0.1,5,0.2,6.8h-4.3l-0.2-4.6H202c-1.5,2.9-4.7,5.2-9,5.2 c-6.4,0-11.3-5.4-11.3-13.4c-0.1-8.8,5.4-14.2,11.9-14.2c4,0,6.8,1.9,8,4h0.1V12.3H206.5z M201.7,35.4c0-0.6-0.1-1.4-0.2-2 c-0.7-3.1-3.3-5.6-6.9-5.6c-5,0-7.9,4.4-7.9,10.2c0,5.3,2.6,9.8,7.8,9.8c3.2,0,6.2-2.1,7.1-5.7c0.2-0.7,0.2-1.3,0.2-2.1V35.4z"/><path fill="#FFFFFF" d="M42.8,64c0.1,1.6-1.1,2.9-3.1,2.9c-1.7,0-2.9-1.3-2.9-2.9c0-1.7,1.3-3,3-3C41.7,61,42.8,62.3,42.8,64z M37.4,97.8V71.4h4.8v26.4H37.4z"/><path fill="#FFFFFF" d="M47.5,78.6c0-2.7-0.1-5-0.2-7.1h4.3l0.3,4.4h0.1c1.3-2.5,4.4-5,8.8-5c3.7,0,9.4,2.2,9.4,11.2v15.8h-4.8 V82.6c0-4.3-1.6-7.8-6.1-7.8c-3.2,0-5.6,2.2-6.5,4.9c-0.2,0.6-0.3,1.4-0.3,2.2v15.9h-4.8V78.6z"/><path fill="#FFFFFF" d="M84,61.6c2.9-0.4,6.3-0.8,10.1-0.8c6.8,0,11.7,1.6,14.9,4.6c3.3,3,5.2,7.3,5.2,13.2c0,6-1.9,10.9-5.3,14.3 c-3.4,3.4-9.1,5.3-16.3,5.3c-3.4,0-6.2-0.2-8.6-0.4V61.6z M88.8,94.1c1.2,0.2,3,0.3,4.8,0.3c10.2,0,15.7-5.7,15.7-15.6 c0.1-8.7-4.9-14.2-14.9-14.2c-2.5,0-4.3,0.2-5.6,0.5V94.1z"/><path fill="#FFFFFF" d="M132.1,97.8l-0.4-3.3h-0.2c-1.5,2.1-4.3,3.9-8.1,3.9c-5.4,0-8.1-3.8-8.1-7.6c0-6.4,5.7-9.9,15.9-9.8v-0.5 c0-2.2-0.6-6.1-6-6.1c-2.5,0-5,0.8-6.9,2l-1.1-3.2c2.2-1.4,5.4-2.3,8.7-2.3c8.1,0,10.1,5.5,10.1,10.8v9.9c0,2.3,0.1,4.5,0.4,6.3 H132.1z M131.4,84.4c-5.3-0.1-11.2,0.8-11.2,5.9c0,3.1,2.1,4.6,4.5,4.6c3.4,0,5.6-2.2,6.4-4.4c0.2-0.5,0.3-1,0.3-1.5V84.4z"/><path fill="#FFFFFF" d="M146.6,63.9v7.6h6.9v3.7h-6.9v14.2c0,3.3,0.9,5.1,3.6,5.1c1.3,0,2.2-0.2,2.8-0.3l0.2,3.6 c-0.9,0.4-2.4,0.7-4.3,0.7c-2.2,0-4-0.7-5.2-2c-1.4-1.4-1.9-3.8-1.9-6.9V75.1h-4.1v-3.7h4.1v-6.3L146.6,63.9z"/><path fill="#FFFFFF" d="M171.4,97.8l-0.4-3.3h-0.2c-1.5,2.1-4.3,3.9-8.1,3.9c-5.4,0-8.1-3.8-8.1-7.6c0-6.4,5.7-9.9,15.9-9.8v-0.5 c0-2.2-0.6-6.1-6-6.1c-2.5,0-5,0.8-6.9,2l-1.1-3.2c2.2-1.4,5.4-2.3,8.7-2.3c8.1,0,10.1,5.5,10.1,10.8v9.9c0,2.3,0.1,4.5,0.4,6.3 H171.4z M170.7,84.4c-5.3-0.1-11.2,0.8-11.2,5.9c0,3.1,2.1,4.6,4.5,4.6c3.4,0,5.6-2.2,6.4-4.4c0.2-0.5,0.3-1,0.3-1.5V84.4z"/></g></g></a></g><a href="https://ourworldindata.org/grapher/gdp-per-capita-in-international-and-market-dollars" target="_blank"><text font-size="25.20" x="15.0" y="35.2" fill="#555"><tspan x="15" y="35.160000000000004">GDP per capita in international and market dollars, India</tspan></text></a><text font-size="14.40" x="15.0" y="53.7" fill="#666"><tspan x="15" y="53.72">International dollars use purchase power parity conversion rates from 2011, in order to account for differences in</tspan><tspan x="15" y="69.56">prices levels. Market dollars use currency market exchange rates.</tspan></text></g><g class="LineChart"><defs><clipPath id="boundsClip-40"><rect x="59.896" y="0" width="830" height="928.8"></rect></clipPath></defs><g class="AxisBoxView"><g class="HorizontalAxis"><text x="69.9" y="556.5" fill="#666" text-anchor="middle" font-size="16.2">1960</text><text x="168.5" y="556.5" fill="#666" text-anchor="middle" font-size="16.2">1970</text><text x="267.2" y="556.5" fill="#666" text-anchor="middle" font-size="16.2">1980</text><text x="365.8" y="556.5" fill="#666" text-anchor="middle" font-size="16.2">1990</text><text x="464.5" y="556.5" fill="#666" text-anchor="middle" font-size="16.2">2000</text><text x="563.1" y="556.5" fill="#666" text-anchor="middle" font-size="16.2">2010</text><text x="622.3" y="556.5" fill="#666" text-anchor="middle" font-size="16.2">2016</text></g><g class="VerticalAxis"><text x="64.90" y="535.3" fill="#666" dominant-baseline="middle" text-anchor="end" font-size="16.2">$0</text><text x="64.90" y="467.9" fill="#666" dominant-baseline="middle" text-anchor="end" font-size="16.2">$1,000</text><text x="64.90" y="400.4" fill="#666" dominant-baseline="middle" text-anchor="end" font-size="16.2">$2,000</text><text x="64.90" y="333" fill="#666" dominant-baseline="middle" text-anchor="end" font-size="16.2">$3,000</text><text x="64.90" y="265.6" fill="#666" dominant-baseline="middle" text-anchor="end" font-size="16.2">$4,000</text><text x="64.90" y="198.1" fill="#666" dominant-baseline="middle" text-anchor="end" font-size="16.2">$5,000</text><text x="64.90" y="130.7" fill="#666" dominant-baseline="middle" text-anchor="end" font-size="16.2">$6,000</text></g><g class="AxisGridLines"><line x1="69.90" y1="535.3" x2="622.34" y2="535.3" stroke="#ccc"></line><line x1="69.90" y1="467.9" x2="622.34" y2="467.9" stroke="#ddd" stroke-dasharray="3,2"></line><line x1="69.90" y1="400.4" x2="622.34" y2="400.4" stroke="#ddd" stroke-dasharray="3,2"></line><line x1="69.90" y1="333" x2="622.34" y2="333" stroke="#ddd" stroke-dasharray="3,2"></line><line x1="69.90" y1="265.6" x2="622.34" y2="265.6" stroke="#ddd" stroke-dasharray="3,2"></line><line x1="69.90" y1="198.1" x2="622.34" y2="198.1" stroke="#ddd" stroke-dasharray="3,2"></line><line x1="69.90" y1="130.7" x2="622.34" y2="130.7" stroke="#ddd" stroke-dasharray="3,2"></line></g></g><g clip-path="url(#boundsClip-40)"><g class="HeightedLegend clickable"><g class="legendMark"><rect x="622.3399999999999" y="78.05" width="212.66000000000003" height="28.1" fill="#fff" opacity="0"></rect><text font-size="13.50" x="627.3" y="88.8" fill="#ca2628"><tspan x="627.3399999999999" y="88.85">GDP per capita, PPP (current</tspan><tspan x="627.3399999999999" y="103.69999999999999">international $)</tspan></text></g><g class="legendMark"><rect x="622.3399999999999" y="413.25" width="212.525" height="13.5" fill="#fff" opacity="0"></rect><text font-size="13.50" x="627.3" y="424.1" fill="#ca2628"><tspan x="627.3399999999999" y="424.05">GDP per capita (current US$)</tspan></text></g></g><g class="Lines"><rect x="70" y="92" width="552" height="443" fill="rgba(255,255,255,0)" opacity="0"></rect><g class="key-India_0"><path stroke="#ca2628" stroke-linecap="round" d="M70 530L80 530L90 529L100 529L109 528L119 527L129 529L139 529L149 529L159 528L169 528L178 527L188 527L198 526L208 524L218 525L228 525L238 523L248 522L257 520L267 518L277 517L287 517L297 516L307 517L317 516L326 515L336 513L346 512L356 512L366 511L376 515L386 514L395 515L405 512L415 510L425 509L435 508L445 508L455 506L465 506L474 505L484 504L494 499L504 493L514 488L524 482L534 467L543 468L553 462L563 445L573 437L583 438L593 437L603 429L613 427L622 420" fill="none" stroke-width="1.5"></path><g fill="#ca2628"><circle cx="70" cy="530" r="2"></circle><circle cx="80" cy="530" r="2"></circle><circle cx="90" cy="529" r="2"></circle><circle cx="100" cy="529" r="2"></circle><circle cx="109" cy="528" r="2"></circle><circle cx="119" cy="527" r="2"></circle><circle cx="129" cy="529" r="2"></circle><circle cx="139" cy="529" r="2"></circle><circle cx="149" cy="529" r="2"></circle><circle cx="159" cy="528" r="2"></circle><circle cx="169" cy="528" r="2"></circle><circle cx="178" cy="527" r="2"></circle><circle cx="188" cy="527" r="2"></circle><circle cx="198" cy="526" r="2"></circle><circle cx="208" cy="524" r="2"></circle><circle cx="218" cy="525" r="2"></circle><circle cx="228" cy="525" r="2"></circle><circle cx="238" cy="523" r="2"></circle><circle cx="248" cy="522" r="2"></circle><circle cx="257" cy="520" r="2"></circle><circle cx="267" cy="518" r="2"></circle><circle cx="277" cy="517" r="2"></circle><circle cx="287" cy="517" r="2"></circle><circle cx="297" cy="516" r="2"></circle><circle cx="307" cy="517" r="2"></circle><circle cx="317" cy="516" r="2"></circle><circle cx="326" cy="515" r="2"></circle><circle cx="336" cy="513" r="2"></circle><circle cx="346" cy="512" r="2"></circle><circle cx="356" cy="512" r="2"></circle><circle cx="366" cy="511" r="2"></circle><circle cx="376" cy="515" r="2"></circle><circle cx="386" cy="514" r="2"></circle><circle cx="395" cy="515" r="2"></circle><circle cx="405" cy="512" r="2"></circle><circle cx="415" cy="510" r="2"></circle><circle cx="425" cy="509" r="2"></circle><circle cx="435" cy="508" r="2"></circle><circle cx="445" cy="508" r="2"></circle><circle cx="455" cy="506" r="2"></circle><circle cx="465" cy="506" r="2"></circle><circle cx="474" cy="505" r="2"></circle><circle cx="484" cy="504" r="2"></circle><circle cx="494" cy="499" r="2"></circle><circle cx="504" cy="493" r="2"></circle><circle cx="514" cy="488" r="2"></circle><circle cx="524" cy="482" r="2"></circle><circle cx="534" cy="467" r="2"></circle><circle cx="543" cy="468" r="2"></circle><circle cx="553" cy="462" r="2"></circle><circle cx="563" cy="445" r="2"></circle><circle cx="573" cy="437" r="2"></circle><circle cx="583" cy="438" r="2"></circle><circle cx="593" cy="437" r="2"></circle><circle cx="603" cy="429" r="2"></circle><circle cx="613" cy="427" r="2"></circle><circle cx="622" cy="420" r="2"></circle></g></g><g class="key-India_1"><path stroke="#ca2628" stroke-linecap="round" d="M366 459L376 457L386 453L395 448L405 442L415 435L425 428L435 424L445 418L455 408L465 402L474 395L484 390L494 378L504 363L514 344L524 324L534 300L543 290L553 271L563 244L573 223L583 204L593 181L603 152L613 122L622 92" fill="none" stroke-width="1.5"></path><g fill="#ca2628"><circle cx="366" cy="459" r="2"></circle><circle cx="376" cy="457" r="2"></circle><circle cx="386" cy="453" r="2"></circle><circle cx="395" cy="448" r="2"></circle><circle cx="405" cy="442" r="2"></circle><circle cx="415" cy="435" r="2"></circle><circle cx="425" cy="428" r="2"></circle><circle cx="435" cy="424" r="2"></circle><circle cx="445" cy="418" r="2"></circle><circle cx="455" cy="408" r="2"></circle><circle cx="465" cy="402" r="2"></circle><circle cx="474" cy="395" r="2"></circle><circle cx="484" cy="390" r="2"></circle><circle cx="494" cy="378" r="2"></circle><circle cx="504" cy="363" r="2"></circle><circle cx="514" cy="344" r="2"></circle><circle cx="524" cy="324" r="2"></circle><circle cx="534" cy="300" r="2"></circle><circle cx="543" cy="290" r="2"></circle><circle cx="553" cy="271" r="2"></circle><circle cx="563" cy="244" r="2"></circle><circle cx="573" cy="223" r="2"></circle><circle cx="583" cy="204" r="2"></circle><circle cx="593" cy="181" r="2"></circle><circle cx="603" cy="152" r="2"></circle><circle cx="613" cy="122" r="2"></circle><circle cx="622" cy="92" r="2"></circle></g></g></g></g></g><g style="fill: #777;" class="SourcesFooter"><g style="fill: #777;" class="clickable"><text font-size="12.60" x="15.0" y="581.6"><tspan x="15" y="581.58">Source: World Bank – WDI</tspan></text></g><text font-size="12.60" x="550.7" y="581.6"><tspan x="550.7439999999999" y="581.58"><a target='_blank' style='fill: #777;' href='https://ourworldindata.org/extreme-poverty/'>OurWorldInData.org/extreme-poverty/</a> • <a style="fill: #777;" class="cclogo" href="http://creativecommons.org/licenses/by-sa/4.0/deed.en_US" target="_blank">CC BY-SA</a></tspan></text></g></g></svg>
